X: 133
T:Rakish Paddy
M:C|
L:1/8
R:Reel
K:Dmix
c3B c2AB|cBAG EG~G2|Add^c defe|dcAG FGAB|!
cdcB c2AB|cBAG EFGE|DEFG ABcA|1dcAG FGAB:|2dcAG FDD2|!
|:eg~g2 ag~g2|eggf ed^cd|ea~a2 bgag|eaag ed^cd|!
efge afge|~f3e defg|afge fde^c|1dcAG FDD2:|2dcAG FGAB|]!
% Output from ABC2Win  Version 2.1 i on 8/20/2003
